X:117
T:Mrs. Keith MacDonald's
R:Strathspey
C:Keith N. MacDonald
S:MacDonald - Skye Collection
N:pg.23
M:C
L:1/8
K:A
A|A,/A,/A, CD E>F A/B/c/A/|B>c e/d/B/A/ F>AE>A|A,/A,/A, CD E>F A/B/c/A/|
f>a e/d/c/B/ B2A:|
(3e/f/g/|a>e c>e a>e f/e/d/c/|d>Bc>A F>AE>A|a>e c>e a/g/f/e/ e/d/c/B/|F>BE>B
A2A2|
a>ec>e a>e f/e/d/c/|d>Bc>A F>AE>A|(3agf (3edc (3edc (3AGF|(3EFA (3GAB
A2A||
